packages/core/src/svgs/tokens/branded/AXE.svg

<svg width="24" height="24" viewBox="0 0 24 24" fill="none" xmlns="http://www.w3.org/2000/svg">
<path d="M11.8997 10.6375L6.81226 2.00003L11.8997 7.33752L17.2685 2.00003L11.8997 10.6375Z" fill="#6D47EC"/>
<path d="M12.0185 10.4563L17.2685 2.00003L15.3622 3.90003L12.0185 10.4563ZM8.81225 4.09378L6.81226 2.00003L11.8123 10.4812L8.81225 4.09378Z" fill="#193FE0"/>
<path d="M11.8997 13.3626L6.81226 22L11.8997 16.6625L17.2685 22L11.8997 13.3626Z" fill="#3052F1"/>
<path d="M12.0185 13.5437L17.2685 22L15.3622 20.1001L12.0185 13.5376V13.5437ZM8.81225 19.9062L6.81226 22L11.8123 13.5188L8.81225 19.9062Z" fill="#193FE0"/>
<path d="M7.26874 12.0562L2 6.71879L6.54373 2.11255L11.9562 10.6501L17.4561 2.11255L22 6.71879L16.7312 12.0562L22 17.3937L17.4561 22L11.9562 13.4375L6.54373 22L2 17.3937L7.26874 12.0562Z" fill="url(#paint0_linear_364_11770)"/>
<defs>
<linearGradient id="paint0_linear_364_11770" x1="11.9999" y1="2.11255" x2="11.9999" y2="22" gradientUnits="userSpaceOnUse">
<stop stop-color="#DD76F9"/>
<stop offset="1" stop-color="#00C1E3"/>
</linearGradient>
</defs>
</svg>

<svg xmlns="http://www.w3.org/2000/svg" width="24" height="24" fill="none" viewBox="0 0 24 24">
    <path fill="#6D47EC" d="M11.9 10.638 6.812 2 11.9 7.338 17.268 2z"/>
    <path fill="#193FE0" d="M12.019 10.456 17.269 2l-1.907 1.9zM8.811 4.094 6.812 2l5 8.481z"/>
    <path fill="#3052F1" d="M11.9 13.363 6.812 22l5.088-5.337L17.268 22z"/>
    <path fill="#193FE0" d="M12.019 13.544 17.269 22l-1.907-1.9-3.344-6.562zm-3.207 6.362-2 2.094 5-8.481z"/>
    <path fill="url(#AXE__a)" d="M7.269 12.056 2 6.72l4.544-4.606 5.412 8.537 5.5-8.537L22 6.719l-5.269 5.337L22 17.394 17.456 22l-5.5-8.562L6.544 22 2 17.394z"/>
    <defs>
        <linearGradient id="AXE__a" x1="12" x2="12" y1="2.113" y2="22" gradientUnits="userSpaceOnUse">
            <stop stop-color="#DD76F9"/>
            <stop offset="1" stop-color="#00C1E3"/>
        </linearGradient>
    </defs>
</svg>
